resources/svg/layers-intersect-o.svg

<svg width="15" height="15" viewBox="0 0 15 15" fill="none" xmlns="http://www.w3.org/2000/svg">
<path d="M4.5 3V1.5C4.5 0.947715 4.94772 0.5 5.5 0.5H7M12 0.5H13.5C14.0523 0.5 14.5 0.947715 14.5 1.5V3M8 0.5H11M12 10.5H13.5C14.0523 10.5 14.5 10.0523 14.5 9.5V8M14.5 4V7M3 4.5H1.5C0.947715 4.5 0.5 4.94772 0.5 5.5V7M0.5 12V13.5C0.5 14.0523 0.947715 14.5 1.5 14.5H3M0.5 8V11M8 14.5H9.5C10.0523 14.5 10.5 14.0523 10.5 13.5V12M4 14.5H7M4.5 4.5V10.5H10.5V4.5H4.5Z" stroke="black"/>
</svg>

<svg viewBox="0 0 15 15" fill="none" xmlns="http://www.w3.org/2000/svg" fill="currentColor"><path d="M4.5 3V1.5a1 1 0 011-1H7m5 0h1.5a1 1 0 011 1V3M8 .5h3m1 10h1.5a1 1 0 001-1V8m0-4v3M3 4.5H1.5a1 1 0 00-1 1V7m0 5v1.5a1 1 0 001 1H3M.5 8v3M8 14.5h1.5a1 1 0 001-1V12M4 14.5h3m-2.5-10v6h6v-6h-6z" stroke="currentColor"/></svg>
